!!!!SEGMENT: pl-wn--mus-iii-105-719-1--011_zelenski-wladyslaw--25-preludyi-op-38-11-allegro-maestoso.krn
!!!cenid: 18xx:3744
!!!COM: Żeleński, Władysław
!!!COM-rismID: pe41024455
!!!CDT: 1837/07/06-1921/01/23
!!!CNT: Polish
!!!GTL: 25 preludyi op. 38
!!!OTL: 11. Allegro maestoso
!!!PDT: 1881
!!!AGN:
!!!SMS-siglum: PL-Wn
!!!SMS-shelfmark: Mus.III.105.719/1
!!!SMS-shelfwork: 011 G
!!!SMS-variant:
!!!SMS-altvar:
!!!NIFC-rismSourceID:
!!!NIFC-rismChildID:
!!!NIFC-islandoraID:
!!!URL-pdf-islandora:
!!!URL-scan: https://polona.pl/item/25-preludyi-2-3-i-4-glosowych-na-organ-lub-fisharmonike-do-uzytku-organistow-i,ODE1NjEwMzc/2 @EN{Scan on Polona} @PL{Skany w portalu Polona}
!!!ONB-nifc:
!!!OMD: Allegro maestoso.
!!!AIN: 2 organ
!!!key: E-
**kern	**fing	**kern	**dynam	**fing
*part2	*	*part1	*part1	*
*staff2	*	*staff1	*	*
*I"[Organ / Fisharmonika]	*	*I"[Organ / Fisharmonika]	*	*
*I'	*	*I'	*	*
*Iorgan	*	*Iorgan	*	*
*ICklav	*	*ICklav	*	*
*clefF4	*	*clefG2	*	*
*k[b-e-a-]	*	*k[b-e-a-]	*	*
*E-:	*	*E-:	*	*
*M4/4	*	*M4/4	*	*
*met(c)	*	*met(c)	*	*
=1	=1	=1	=1	=1
*	*	*^	*	*^
*xywh-#18:741,497,5211,1009	*	*xywh-#18:741,497,5211,1009	*xywh-#18:741,497,5211,1009	*	*	*
!LO:TX:b:i:t=con Ped. ad.lib.	!	!LO:TX:iB:a:t=1):Z początku, przy f nie trzeba używać wszystkich głosów; dopiero przy ff wystąpić powinien pełny organ. Małe nuty i pauzy w niższym głosie umieszczone odnoszą się do Pedału./ Anfangs bei f braucht man nicht alle Stimmen herauszuziehen, das volle Werk muſs erst bei ff hervortreten. Die kleinen Noten und Pausen in der Unterstimme beziehen sich auf das Pedal.:footnote	!	!LO:DY:t=%s sempre legato	!	!
1E-	.	4r	4ryy	f	.	.
.	.	(8ee-/L	4g\	.	5	1
*	*	*	*	*	*below	*
.	.	8dd/J	.	.	4	.
*	*	*	*	*	*above	*
.	.	[2cc/	4a-\	.	3_5	2
.	.	.	8f\L	.	.	1
.	.	.	8e-\J	.	.	2
=2	=2	=2	=2	=2	=2	=2
2.E-\	.	4cc/])	4d\	.	.	.
.	.	(8b-/L	2f\	.	4	2_1
.	.	8a-/J	.	.	3	.
.	.	[2g/	.	.	4	.
*	*below	*	*	*	*	*
4BBn/	4	.	8e-\L	.	.	.
.	.	.	8d\J	.	.	.
=3	=3	=3	=3	=3	=3	=3
4C/	1	4g/])	[1e-	.	.	2_1
4BB-/	.	8a-/L	.	.	5	.
.	.	8g/J	.	.	3	.
4AA-/	.	4f/	.	.	2	.
4FF/	.	8cc/L	.	.	5	.
.	.	8a-/J	.	.	3	.
=4	=4	=4	=4	=4	=4	=4
1BB-	2_5	2g/	4e-\]	.	4	.
.	.	.	8d\L	.	.	2
.	.	.	8c\J	.	.	1
.	.	4f/	2d\	.	3	2_1
.	.	8g/L	.	.	.	.
.	.	8a-/J	.	.	.	.
=5	=5	=5	=5	=5	=5	=5
*^	*	*	*	*	*	*
*	*^	*	*	*	*	*	*
*	*	*	*above	*	*	*	*	*
4ryy	[1E-	4EE-\	2_5	2g/	8e-\	.	4 2	.
.	.	.	.	.	8r	.	.	.
8e-/L	.	4rAAA	1	.	2.ryy	.	.	.
8d/J	.	.	1	.	.	.	.	.
[2c/	.	2rCC	2_1	4a-/	.	.	5	.
.	.	.	.	4en/	.	.	2	.
*	*v	*v	*	*	*	*	*	*
*	*	*	*v	*v	*	*	*
=6	=6	=6	=6	=6	=6	=6
4c/]	2E-\_	.	4f/	.	5	.
8B-/L	.	.	4d/	.	3	.
8A-/J	.	.	.	.	.	.
[2G/	8E-\L]	1	[2e-/	.	4_5	.
*	*	*below	*	*	*	*
.	8D\	1	.	.	.	.
.	8C\	2	.	.	.	.
.	8BBn\J	3	.	.	.	.
=7	=7	=7	=7	=7	=7	=7
4G/]	2.C\	1	2e-/]	.	.	.
*	*	*above	*	*	*	*
8A-/L	.	3	.	.	.	.
8G/J	.	2	.	.	.	.
4F/	.	1	4d/	.	5	.
*ped	*	*	*	*	*	*
!LO:TX:t=P:problem=Ped. with extention lines	!	!	!	!	!	!
4G/	4BB-\	2_1	4d-X/	.	4	.
=8	=8	=8	=8	=8	=8	=8
4A-/	4AA-\	2	4c/	.	3	.
8G/L	4BB-\	2	4dn/	.	4	.
8F/J	.	1	.	.	.	.
*Xped	*	*	*	*	*	*
8G/	8EE-\	2	8e-/	.	5	.
8rG	8r	.	8r	.	.	.
4rG	4r	.	8e-/L	.	3	.
.	.	.	8f/J	.	4	.
*v	*v	*	*	*	*	*
!!linebreak:original
=9	=9	=9	=9	=9	=9
*	*	*^	*	*	*
*xywh-#18:741,1431,5198,763	*	*xywh-#18:741,1431,5198,763	*xywh-#18:741,1431,5198,763	*	*	*
!	!	!	!	!LO:DY:t=meno %s	!	!
4r	.	(2.g/	4r	f	5	.
*	*below	*	*	*	*	*
8BB-/L	3	.	[4d\	.	.	2
8C/J	.	.	.	.	.	.
[>2D/	.	.	8d\L]	.	.	.
.	.	.	8c\	.	.	1
.	.	4f#X/	8B-\	.	4	2
.	.	.	8An\J	.	.	1
=10	=10	=10	=10	=10	=10	=10
4D\]	.	2.g/)	4B-\	.	5	2
8E-\L	3	.	8c\L	.	.	1
8F\J	.	.	8d\J	.	.	2
[2G\	.	.	[2e-\	.	.	1
.	.	8an/L	.	<	3	.
.	.	8b-/J	.	.	4	.
=11	=11	=11	=11	=11	=11	=11
4G\]	.	4cc/	2e-\]	.	5	.
*	*above	*	*	*	*	*
8F#X\L	3	4an/	.	.	4	.
8G\J	.	.	.	.	.	.
4An\	.	4f#X/	4d\	.	3 2	.
*	*below	*	*	*	*	*
8D\L	4	4a/	[4c\	[[	5 1	.
8F#\J	2	.	.	.	.	.
=12	=12	=12	=12	=12	=12	=12
2G\	.	4d/	4c\]	>	3 1	.
.	.	[4g/	8B-\L	.	5	2
.	.	.	8An\J	.	.	1
2GG/	4	8g/]	8B-\L	.	.	2
.	.	8r	8c\	.	.	1
.	.	[4b-/	8d\	.	5	2
.	.	.	8en\J	]	.	1
=13	=13	=13	=13	=13	=13	=13
4FF/	5	4b-/]	8f\	.	.	2
.	.	.	8r	.	.	.
2F\	1_4	(8a-/L	[4c\	.	.	.
.	.	8b-/J	.	.	.	.
!	!	!LO:TX:t=P:problem=mixed beam	!	!	!	!
.	.	[2cc/	8c\L]	.	5	.
.	.	.	8B-</	.	2	.
4En\	5	.	8A-</	.	3	.
.	.	.	8G</J	.	1	.
*	*	*v	*v	*	*v	*v
=14	=14	=14	=14	=14
*^	*^	*	*	*
4A-/	2.F\	3	4_5	4cc\])	.	.
8B-/L	.	2	.	(8dd-X\L	.	3
8c/J	.	1	.	8ee-\J	.	4
[2d-X/	.	2_1	.	[2ff\	<	5
.	8G\L	.	.	.	.	.
.	8A-\J	.	.	.	.	.
*	*	*v	*v	*	*	*
=15	=15	=15	=15	=15	=15
2d-/]	4B-\	.	4ff\])	.	.
.	4G\	.	(8een\L	.	3
.	.	.	8ff\J	.	4
*	*	*above	*	*	*
4c/	4En\	1 5	4gg\	.	5
[4B-/	4G\	2 3	8cc\L	.	2
.	.	.	8ee\J	[[	4
=16	=16	=16	=16	=16	=16
*	*	*^	*^	*	*
4B-/]	[2F\	.	.	2.ff/)	2.ff\	>	5
8A-/L	.	1	.	.	.	.	.
8G/J	.	2	.	.	.	.	.
4A-/	8F\L]	1	.	.	.	.	.
.	8E-\	3	.	.	.	.	.
4ryy	8C\	5	.	[4b-/	4a-\	]]	3 2
.	8D\J	3	.	.	.	.	.
*v	*v	*	*	*	*	*	*
=17	=17	=17	=17	=17	=17	=17
*	*	*	*	*	*	*^
[2E-\	2	.	8b-/]	8g\	.	1	.
.	.	.	8r	8r	.	.	.
.	.	.	2ee-/	8e-\L	.	5	1
.	.	.	.	8f\J	.	.	1
8E-\L]	.	.	.	[2g\	.	.	2_1
8D\	1	.	.	.	.	.	.
8C\	2	.	4dd/	.	.	4	.
8BBn\J	3	.	.	.	.	.	.
*	*v	*v	*	*	*	*	*
!!linebreak:original
=18	=18	=18	=18	=18	=18	=18
*xywh-#18:735,2150,5116,788	*	*xywh-#18:735,2150,5116,788	*xywh-#18:735,2150,5116,788	*	*	*
2.C/	2	[2ee-/	4g\]	.	.	.
.	.	.	8a-\L	.	.	2
.	.	.	8b-\J	.	.	3
.	.	8ee-/L]	[2cc\	.	.	1
.	.	8dd/	.	.	2	.
4AA-/	4	8ee-/	.	.	3	.
.	.	8ff/J	.	.	4	.
=19	=19	=19	=19	=19	=19	=19
!	!	!	!	!LO:HP:t=cresc.sempre	!	!
4GG/	.	2gg/	4cc\]	<	.	.
[<4G\	1	.	8bn\L	.	.	2
.	.	.	8cc\J	.	.	1
8G\L]	.	4ff#X/	4dd\	.	4	2
8An\	3	.	.	.	.	.
8Bn\	2	[4ffn/	8g\L	.	5	1
8G\J	4	.	8b\J	.	.	2
=20	=20	=20	=20	=20	=20	=20
4c\	.	4ff/]	4cc\	.	.	1
[4C/	5_4	8een/L	4g\	.	3	1
.	.	8ff/J	.	.	.	.
8C/L]	.	4gg/	[2b-X\	.	5	2
8D/	.	.	.	.	.	.
8En/	.	8cc/L	.	.	3	.
8C/J	.	8ee/J	.	.	4	.
=21	=21	=21	=21	=21	=21	=21
[2F\	1	(2ff/	4b-\]	.	5	.
.	.	.	8an\L	.	.	.
.	.	.	8b-\J	.	.	.
8F\L]	.	4een/)	4cc\	.	5 3	.
8G\	3	.	.	.	.	.
8An\	2	[4ee-X/	8f\L	.	5	1
8F\J	4	.	8a\J	.	.	2
=22	=22	=22	=22	=22	=22	=22
[2B-\	1	4ee-/]	4b-\	.	.	3
.	.	8dd/L	4f\	.	5	1
.	.	8ee-/J	.	.	4	.
8B-\L]	.	4ff/	[2a-X\	.	5	2
8BB-\	5	.	.	.	.	.
8C\	.	[4b-/	.	.	3	.
8D\J	.	.	.	.	.	.
*	*	*	*	*	*v	*v
=23	=23	=23	=23	=23	=23
*ped	*	*	*	*	*
!LO:TX:t=P:problem=Ped. with extention lines	!	!	!	!	!
[1E-	2	4b-/]	4a-\]	ff	.
.	.	8ee-/L	4g\	.	.
.	.	8dd/J	.	.	.
.	.	[2cc/	4a-\	.	.
.	.	.	8f\L	.	.
.	.	.	8e-\J	.	.
=24	=24	=24	=24	=24	=24
2.E-\]	.	4cc/]	4d\	.	.
.	.	(8b-/L	2f\	.	.
.	.	8a-/J	.	.	.
.	.	[2g/	.	.	.
4BBn/	.	.	8e-\L	.	.
.	.	.	8d\J	.	.
=25	=25	=25	=25	=25	=25
4C/	.	4g/])	1e-	.	.
4BB-/	.	(8a-/L	.	.	.
.	.	8g/J	.	.	.
4AA-/	.	4f/	.	.	.
4FF/	.	8cc/L	.	.	.
.	.	8a-/J	.	.	.
=26	=26	=26	=26	=26	=26
2.BB-/	.	2g/	4e-\	.	.
.	.	.	8d\L	.	.
.	.	.	8c\J	.	.
.	.	4f/)	4d\	.	.
*Xped	*	*	*	*	*
4EEn/	.	4g/	4d-X\	.	.
=27	=27	=27	=27	=27	=27
*	*	*	*	*	*^
*	*below	*	*	*	*	*
!	!	!	!	!LO:DY:t=meno %s	!	!
2FF/	4	2a-/	4c\	f	5_4	.
.	.	.	8f\L	.	.	3
.	.	.	8e-\J	.	.	2
[2F\	.	4b-/	[2d-X\	.	5	.
.	.	4f/	.	.	4	.
*	*	*	*	*	*v	*v
!!linebreak:original
=28	=28	=28	=28	=28	=28
*	*	*	*	*	*^
*xywh-#18:722,2888,5198,1337	*	*xywh-#18:722,2888,5198,1337	*xywh-#18:722,2888,5198,1337	*	*	*
2F\_	.	4g/	4d-\]	.	5	.
.	.	4en/	8c\L	.	4	1
.	.	.	8B-\J	.	.	2
8F\L]	.	([2f/	[2A-\	.	5	1
8E-\	.	.	.	.	.	.
8D-X\	.	.	.	.	.	.
8C\J	.	.	.	.	.	.
=29	=29	=29	=29	=29	=29	=29
2.D-X/	.	2f/]	4A-\]	.	.	.
.	.	.	8B-\L	.	.	2
.	.	.	8A-\J	.	.	1
.	.	4en/)	4G\	.	4	1
*ped	*	*	*	*	*	*
!LO:TX:t=P:problem=Ped. with extention lines	!	!	!	!	!	!
4C-X/	.	(4e-X/	4An\	.	3	1
=30	=30	=30	=30	=30	=30	=30
*^	*	*	*	*	*	*
2.BB-/	2BB-\	.	4d/	4B-\	.	3	2
.	.	.	4e-/	8An\L	.	4	2
.	.	.	.	8F\J	.	.	1
*Xped	*	*	*	*	*	*	*
.	2r	.	4f/	2A-X\	.	5	2_1
8C/L	.	.	8e-/L	.	.	3	.
8D/J	.	.	8f/J	.	.	4	.
=31	=31	=31	=31	=31	=31	=31	=31
2.E-/	2r	.	2g/	4G\	.	5	1
.	.	.	.	8c\L	.	.	2
.	.	.	.	8B-\J	.	.	1
!	!	!	!	!	!LO:HP:a:t=cresc.sempre	!	!
.	4r	.	4f#X/)	4An\	<	4	1
*ped	*	*	*	*	*	*	*
!LO:TX:t=P:problem=Ped. with extention lines	!	!	!	!	!	!	!
4D-X/	4D-\	.	4fn/	4Bn\	.	4	2
=32	=32	=32	=32	=32	=32	=32	=32
(2.C/	2C\	.	4en/	4c\	.	3	1
.	.	.	4f/	8Bn\L	.	4	2
.	.	.	.	8G\J	.	.	1
*Xped	*	*	*	*	*	*	*
.	2r	.	4g/	2B-X\	.	5	2_1
8Dn/L	.	.	8f/L	.	.	4	.
8En/J	.	.	8g/J	.	.	5	.
*v	*v	*	*	*	*	*	*
=33	=33	=33	=33	=33	=33	=33
!LO:N:vis=2	!	!	!	!	!	!
2.F\)	2_3	4a-/	4A-\	.	.	.
.	.	4an/	8e-\L	.	4	.
.	.	.	8c\J	.	.	.
!	!	!LO:TX:t=P:problem=mixed beam	!	!	!	!
.	.	4b-/	8d-X\L	.	5	.
.	.	.	8B-</	.	.	1
*ped	*	*	*	*	*	*
!LO:TX:t=P:problem=Ped. with extention lines	!	!	!	!	!	!
4Dn\	4	4bn/	8A-</	.	4	2
.	.	.	8G</J	.	.	1
*	*	*v	*v	*	*	*
=34	=34	=34	=34	=34	=34
*^	*^	*	*	*	*
8A-/L	2C\	2	5	2cc\	.	5	.
8G/	.	1	.	.	.	.	.
8F/	.	2	.	.	.	.	.
8En/J	.	4	.	.	.	.	.
8F/L	4C-X\	2	4	4dd-X\	.	3	.
8A-/	.	1	.	.	.	.	.
8G/	[4BB-\	1	5	4ddn\	.	4	.
8F/J	.	2	.	.	.	.	.
=35	=35	=35	=35	=35	=35	=35	=35
2.G/	4BB-\]	1	.	4ee-\	.	5	.
.	8E-\L	.	2	(4bn\	.	1	.
.	8D\J	.	3	.	.	.	.
.	[2C\	.	5	4cc\	.	5	.
8A-/L	.	2	.	4en/	.	2	.
8B-/J	.	1	.	.	.	.	.
=36	=36	=36	=36	=36	=36	=36	=36
*	*	*	*	*^	*	*	*
!	!	!	!	!LO:N:vis=2	!	!	!	!
4A-/	4C\]	.	.	2.f/	4ryy	.	5	.
8BB-\L	2.ryy	.	3	.	8d-X\L	.	.	3
8AA-\J	.	.	4	.	8c\J	.	.	.
[<2GG\	.	.	5	.	[2Bn\	.	.	.
.	.	.	.	8e-/L	.	.	.	.
.	.	.	.	8dn/J	.	.	.	.
*v	*v	*	*	*	*	*	*	*
=37	=37	=37	=37	=37	=37	=37	=37
4GG/]	.	.	2.e-/	4B\]	.	5	.
8AA-/L	.	3	.	8c\L	.	.	3
8GG/J	.	4	.	8B-X\J	.	.	2
4FF/	.	5	.	2A-\	.	.	1
4BB-/	.	2	4d/	.	.	.	.
*	*	*	*v	*v	*	*	*
=38	=38	=38	=38	=38	=38	=38
*Xped	*	*	*	*	*	*
1EE-	.	.	1G) 1e-	.	5	1
*	*v	*v	*	*	*v	*v
==	==	==	==	==
*-	*-	*-	*-	*-
!!!system-decoration: {(s1,s2)}
!!!RDF**kern: > = above
!!!RDF**kern: < = below
!!!ENC: Katarzyna Serwa
!!!END: 2022-03-17
!!!ENC: Filip Voros
!!!END: 2022-03-11
!!!IIIF: https://polona.pl/iiif/item/ODE1NjEwMzc/manifest.json
!!!ENC-iiif: Jan Barakat
!!!END-iiif: 2022-08-31
!!!YEC: Copyright 2022 Narodowy Instytut Fryderyka Chopina (https://polishscores.org)
!!!YEM: License CC-BY-4.0 (https://creativecommons.org/licenses/by/4.0)
